tools/download-figma-icons/icons/outlined-large/file.svg

<svg width="64" height="64" viewBox="0 0 64 64" fill="none" xmlns="http://www.w3.org/2000/svg">
<path fill-rule="evenodd" clip-rule="evenodd" d="M9.99996 3.00023V61H53.9998V21.0002H41.4998C38.4679 21.0002 35.9999 18.5322 35.9999 15.5002V3.00023H9.99996ZM41.4998 18.0002H53.8788L38.9999 3.12123V15.5002C38.9999 16.8792 40.1208 18.0002 41.4998 18.0002ZM40.5608 0.439242L56.5608 16.4392C56.8418 16.7212 56.9998 17.1032 56.9998 17.5002V62.5C56.9998 63.328 56.3278 64 55.4998 64H8.49997C8.49097 64 8.48247 63.9987 8.47397 63.9975C8.46547 63.9962 8.45697 63.995 8.44797 63.995H7.54697V63.649C7.21597 63.374 6.99997 62.964 6.99997 62.5V1.50024C6.99997 0.672242 7.67197 0.00024414 8.49997 0.00024414H39.4998C39.8968 0.00024414 40.2788 0.158244 40.5608 0.439242ZM19.5145 30.4845H44.5144C45.3424 30.4845 46.0144 31.1565 46.0144 31.9845C46.0144 32.8125 45.3424 33.4845 44.5144 33.4845H19.5145C18.6865 33.4845 18.0145 32.8125 18.0145 31.9845C18.0145 31.1565 18.6865 30.4845 19.5145 30.4845ZM44.5144 38.9845H19.5145C18.6865 38.9845 18.0145 39.6565 18.0145 40.4845C18.0145 41.3125 18.6865 41.9845 19.5145 41.9845H44.5144C45.3424 41.9845 46.0144 41.3125 46.0144 40.4845C46.0144 39.6565 45.3424 38.9845 44.5144 38.9845ZM19.5145 47.4845H44.5144C45.3424 47.4845 46.0144 48.1565 46.0144 48.9845C46.0144 49.8125 45.3424 50.4845 44.5144 50.4845H19.5145C18.6865 50.4845 18.0145 49.8125 18.0145 48.9845C18.0145 48.1565 18.6865 47.4845 19.5145 47.4845Z" fill="black"/>
</svg>

<svg xmlns="http://www.w3.org/2000/svg" width="64" height="64" fill="none" viewBox="0 0 64 64"><path fill="currentColor" fill-rule="evenodd" d="M10 3v58h44V21H41.5a5.507 5.507 0 0 1-5.5-5.5V3zm31.5 15h12.379L38.999 3.121v12.38c0 1.378 1.122 2.5 2.5 2.5M40.56.44l16 16c.282.281.44.663.44 1.06v45a1.5 1.5 0 0 1-1.5 1.5h-47l-.026-.002-.026-.003h-.901v-.346A1.5 1.5 0 0 1 7 62.5v-61A1.5 1.5 0 0 1 8.5 0h31c.397 0 .779.158 1.06.44M19.516 30.484h25a1.5 1.5 0 0 1 0 3h-25a1.5 1.5 0 0 1 0-3m25 8.5h-25a1.5 1.5 0 0 0 0 3h25a1.5 1.5 0 0 0 0-3m-25 8.5h25a1.5 1.5 0 0 1 0 3h-25a1.5 1.5 0 0 1 0-3" clip-rule="evenodd"/></svg>
